; nova3d.cn NovaMaker v2.4.4 64-bits 2021-12-14 16:24:42
;(****Build and Slicing Parameters****)
;(Pix per mm X            = 19.324 )
;(Pix per mm Y            = 19.324 )
;(X Resolution            = 1410 )
;(Y Resolution            = 2531 )
;(Layer Thickness         = 0.05000 mm )
;(Layer Time              = 10000 ms )
;(Render Outlines         = False
;(Outline Width Inset     = 2
;(Outline Width Outset    = 0
;(Bottom Layers Time      = 30000 ms )
;(Number of Bottom Layers = 3 )
;(Blanking Layer Time     = 0 ms )
;(Build Direction         = Bottom_Up)
;(Lift Distance           = 4 mm )
;(Slide/Tilt Value        = 0)
;(Anti Aliasing           = True)
;(Use Mainlift GCode Tab  = False)
;(Anti Aliasing Value     = 2 )
;(Z Lift Feed Rate        = 100.0 mm/s )
;(Z Bottom Lift Feed Rate = 100.0 mm/s )
;(Z Lift Retract Rate     = 100.0 mm/s )
;(Flip X                  = True)
;(Flip Y                  = True)
;Number of Slices         = 130
;(****Machine Configuration ******)  
;(Platform X Size         = 65.02mm )
;(Platform Y Size         = 116mm )  
;(Platform Z Size         = 130mm )  
;(Max X Feedrate          = 200mm/s )
;(Max Y Feedrate          = 200mm/s )
;(Max Z Feedrate          = 200mm/s )
;(Machine Type            = UV_LCD)  

G28
G21 ;Set units to be mm
G91 ;Relative Positioning
M17 ;Enable motors
<Slice> Blank
M106 S0

;<Slice> 0
M106 S255
;<Delay> 30000
M106 S0
;<Slice> Blank
G1 Z4.000 F100
G1 Z-3.950 F100
;<Delay> 6800

;<Slice> 1
M106 S255
;<Delay> 30000
M106 S0
;<Slice> Blank
G1 Z4.000 F100
G1 Z-3.950 F100
;<Delay> 6800

;<Slice> 2
M106 S255
;<Delay> 30000
M106 S0
;<Slice> Blank
G1 Z4.000 F100
G1 Z-3.950 F100
;<Delay> 6800

;<Slice> 3
M106 S255
;<Delay> 10000
M106 S0
;<Slice> Blank
G1 Z4.000 F100
G1 Z-3.950 F100
;<Delay> 6800

;<Slice> 4
M106 S255
;<Delay> 10000
M106 S0
;<Slice> Blank
G1 Z4.000 F100
G1 Z-3.950 F100
;<Delay> 6800

;<Slice> 5
M106 S255
;<Delay> 10000
M106 S0
;<Slice> Blank
G1 Z4.000 F100
G1 Z-3.950 F100
;<Delay> 6800

;<Slice> 6
M106 S255
;<Delay> 10000
M106 S0
;<Slice> Blank
G1 Z4.000 F100
G1 Z-3.950 F100
;<Delay> 6800

;<Slice> 7
M106 S255
;<Delay> 10000
M106 S0
;<Slice> Blank
G1 Z4.000 F100
G1 Z-3.950 F100
;<Delay> 6800

;<Slice> 8
M106 S255
;<Delay> 10000
M106 S0
;<Slice> Blank
G1 Z4.000 F100
G1 Z-3.950 F100
;<Delay> 6800

;<Slice> 9
M106 S255
;<Delay> 10000
M106 S0
;<Slice> Blank
G1 Z4.000 F100
G1 Z-3.950 F100
;<Delay> 6800

;<Slice> 10
M106 S255
;<Delay> 10000
M106 S0
;<Slice> Blank
G1 Z4.000 F100
G1 Z-3.950 F100
;<Delay> 6800

;<Slice> 11
M106 S255
;<Delay> 10000
M106 S0
;<Slice> Blank
G1 Z4.000 F100
G1 Z-3.950 F100
;<Delay> 6800

;<Slice> 12
M106 S255
;<Delay> 10000
M106 S0
;<Slice> Blank
G1 Z4.000 F100
G1 Z-3.950 F100
;<Delay> 6800

;<Slice> 13
M106 S255
;<Delay> 10000
M106 S0
;<Slice> Blank
G1 Z4.000 F100
G1 Z-3.950 F100
;<Delay> 6800

;<Slice> 14
M106 S255
;<Delay> 10000
M106 S0
;<Slice> Blank
G1 Z4.000 F100
G1 Z-3.950 F100
;<Delay> 6800

;<Slice> 15
M106 S255
;<Delay> 10000
M106 S0
;<Slice> Blank
G1 Z4.000 F100
G1 Z-3.950 F100
;<Delay> 6800

;<Slice> 16
M106 S255
;<Delay> 10000
M106 S0
;<Slice> Blank
G1 Z4.000 F100
G1 Z-3.950 F100
;<Delay> 6800

;<Slice> 17
M106 S255
;<Delay> 10000
M106 S0
;<Slice> Blank
G1 Z4.000 F100
G1 Z-3.950 F100
;<Delay> 6800

;<Slice> 18
M106 S255
;<Delay> 10000
M106 S0
;<Slice> Blank
G1 Z4.000 F100
G1 Z-3.950 F100
;<Delay> 6800

;<Slice> 19
M106 S255
;<Delay> 10000
M106 S0
;<Slice> Blank
G1 Z4.000 F100
G1 Z-3.950 F100
;<Delay> 6800

;<Slice> 20
M106 S255
;<Delay> 10000
M106 S0
;<Slice> Blank
G1 Z4.000 F100
G1 Z-3.950 F100
;<Delay> 6800

;<Slice> 21
M106 S255
;<Delay> 10000
M106 S0
;<Slice> Blank
G1 Z4.000 F100
G1 Z-3.950 F100
;<Delay> 6800

;<Slice> 22
M106 S255
;<Delay> 10000
M106 S0
;<Slice> Blank
G1 Z4.000 F100
G1 Z-3.950 F100
;<Delay> 6800

;<Slice> 23
M106 S255
;<Delay> 10000
M106 S0
;<Slice> Blank
G1 Z4.000 F100
G1 Z-3.950 F100
;<Delay> 6800

;<Slice> 24
M106 S255
;<Delay> 10000
M106 S0
;<Slice> Blank
G1 Z4.000 F100
G1 Z-3.950 F100
;<Delay> 6800

;<Slice> 25
M106 S255
;<Delay> 10000
M106 S0
;<Slice> Blank
G1 Z4.000 F100
G1 Z-3.950 F100
;<Delay> 6800

;<Slice> 26
M106 S255
;<Delay> 10000
M106 S0
;<Slice> Blank
G1 Z4.000 F100
G1 Z-3.950 F100
;<Delay> 6800

;<Slice> 27
M106 S255
;<Delay> 10000
M106 S0
;<Slice> Blank
G1 Z4.000 F100
G1 Z-3.950 F100
;<Delay> 6800

;<Slice> 28
M106 S255
;<Delay> 10000
M106 S0
;<Slice> Blank
G1 Z4.000 F100
G1 Z-3.950 F100
;<Delay> 6800

;<Slice> 29
M106 S255
;<Delay> 10000
M106 S0
;<Slice> Blank
G1 Z4.000 F100
G1 Z-3.950 F100
;<Delay> 6800

;<Slice> 30
M106 S255
;<Delay> 10000
M106 S0
;<Slice> Blank
G1 Z4.000 F100
G1 Z-3.950 F100
;<Delay> 6800

;<Slice> 31
M106 S255
;<Delay> 10000
M106 S0
;<Slice> Blank
G1 Z4.000 F100
G1 Z-3.950 F100
;<Delay> 6800

;<Slice> 32
M106 S255
;<Delay> 10000
M106 S0
;<Slice> Blank
G1 Z4.000 F100
G1 Z-3.950 F100
;<Delay> 6800

;<Slice> 33
M106 S255
;<Delay> 10000
M106 S0
;<Slice> Blank
G1 Z4.000 F100
G1 Z-3.950 F100
;<Delay> 6800

;<Slice> 34
M106 S255
;<Delay> 10000
M106 S0
;<Slice> Blank
G1 Z4.000 F100
G1 Z-3.950 F100
;<Delay> 6800

;<Slice> 35
M106 S255
;<Delay> 10000
M106 S0
;<Slice> Blank
G1 Z4.000 F100
G1 Z-3.950 F100
;<Delay> 6800

;<Slice> 36
M106 S255
;<Delay> 10000
M106 S0
;<Slice> Blank
G1 Z4.000 F100
G1 Z-3.950 F100
;<Delay> 6800

;<Slice> 37
M106 S255
;<Delay> 10000
M106 S0
;<Slice> Blank
G1 Z4.000 F100
G1 Z-3.950 F100
;<Delay> 6800

;<Slice> 38
M106 S255
;<Delay> 10000
M106 S0
;<Slice> Blank
G1 Z4.000 F100
G1 Z-3.950 F100
;<Delay> 6800

;<Slice> 39
M106 S255
;<Delay> 10000
M106 S0
;<Slice> Blank
G1 Z4.000 F100
G1 Z-3.950 F100
;<Delay> 6800

;<Slice> 40
M106 S255
;<Delay> 10000
M106 S0
;<Slice> Blank
G1 Z4.000 F100
G1 Z-3.950 F100
;<Delay> 6800

;<Slice> 41
M106 S255
;<Delay> 10000
M106 S0
;<Slice> Blank
G1 Z4.000 F100
G1 Z-3.950 F100
;<Delay> 6800

;<Slice> 42
M106 S255
;<Delay> 10000
M106 S0
;<Slice> Blank
G1 Z4.000 F100
G1 Z-3.950 F100
;<Delay> 6800

;<Slice> 43
M106 S255
;<Delay> 10000
M106 S0
;<Slice> Blank
G1 Z4.000 F100
G1 Z-3.950 F100
;<Delay> 6800

;<Slice> 44
M106 S255
;<Delay> 10000
M106 S0
;<Slice> Blank
G1 Z4.000 F100
G1 Z-3.950 F100
;<Delay> 6800

;<Slice> 45
M106 S255
;<Delay> 10000
M106 S0
;<Slice> Blank
G1 Z4.000 F100
G1 Z-3.950 F100
;<Delay> 6800

;<Slice> 46
M106 S255
;<Delay> 10000
M106 S0
;<Slice> Blank
G1 Z4.000 F100
G1 Z-3.950 F100
;<Delay> 6800

;<Slice> 47
M106 S255
;<Delay> 10000
M106 S0
;<Slice> Blank
G1 Z4.000 F100
G1 Z-3.950 F100
;<Delay> 6800

;<Slice> 48
M106 S255
;<Delay> 10000
M106 S0
;<Slice> Blank
G1 Z4.000 F100
G1 Z-3.950 F100
;<Delay> 6800

;<Slice> 49
M106 S255
;<Delay> 10000
M106 S0
;<Slice> Blank
G1 Z4.000 F100
G1 Z-3.950 F100
;<Delay> 6800

;<Slice> 50
M106 S255
;<Delay> 10000
M106 S0
;<Slice> Blank
G1 Z4.000 F100
G1 Z-3.950 F100
;<Delay> 6800

;<Slice> 51
M106 S255
;<Delay> 10000
M106 S0
;<Slice> Blank
G1 Z4.000 F100
G1 Z-3.950 F100
;<Delay> 6800

;<Slice> 52
M106 S255
;<Delay> 10000
M106 S0
;<Slice> Blank
G1 Z4.000 F100
G1 Z-3.950 F100
;<Delay> 6800

;<Slice> 53
M106 S255
;<Delay> 10000
M106 S0
;<Slice> Blank
G1 Z4.000 F100
G1 Z-3.950 F100
;<Delay> 6800

;<Slice> 54
M106 S255
;<Delay> 10000
M106 S0
;<Slice> Blank
G1 Z4.000 F100
G1 Z-3.950 F100
;<Delay> 6800

;<Slice> 55
M106 S255
;<Delay> 10000
M106 S0
;<Slice> Blank
G1 Z4.000 F100
G1 Z-3.950 F100
;<Delay> 6800

;<Slice> 56
M106 S255
;<Delay> 10000
M106 S0
;<Slice> Blank
G1 Z4.000 F100
G1 Z-3.950 F100
;<Delay> 6800

;<Slice> 57
M106 S255
;<Delay> 10000
M106 S0
;<Slice> Blank
G1 Z4.000 F100
G1 Z-3.950 F100
;<Delay> 6800

;<Slice> 58
M106 S255
;<Delay> 10000
M106 S0
;<Slice> Blank
G1 Z4.000 F100
G1 Z-3.950 F100
;<Delay> 6800

;<Slice> 59
M106 S255
;<Delay> 10000
M106 S0
;<Slice> Blank
G1 Z4.000 F100
G1 Z-3.950 F100
;<Delay> 6800

;<Slice> 60
M106 S255
;<Delay> 10000
M106 S0
;<Slice> Blank
G1 Z4.000 F100
G1 Z-3.950 F100
;<Delay> 6800

;<Slice> 61
M106 S255
;<Delay> 10000
M106 S0
;<Slice> Blank
G1 Z4.000 F100
G1 Z-3.950 F100
;<Delay> 6800

;<Slice> 62
M106 S255
;<Delay> 10000
M106 S0
;<Slice> Blank
G1 Z4.000 F100
G1 Z-3.950 F100
;<Delay> 6800

;<Slice> 63
M106 S255
;<Delay> 10000
M106 S0
;<Slice> Blank
G1 Z4.000 F100
G1 Z-3.950 F100
;<Delay> 6800

;<Slice> 64
M106 S255
;<Delay> 10000
M106 S0
;<Slice> Blank
G1 Z4.000 F100
G1 Z-3.950 F100
;<Delay> 6800

;<Slice> 65
M106 S255
;<Delay> 10000
M106 S0
;<Slice> Blank
G1 Z4.000 F100
G1 Z-3.950 F100
;<Delay> 6800

;<Slice> 66
M106 S255
;<Delay> 10000
M106 S0
;<Slice> Blank
G1 Z4.000 F100
G1 Z-3.950 F100
;<Delay> 6800

;<Slice> 67
M106 S255
;<Delay> 10000
M106 S0
;<Slice> Blank
G1 Z4.000 F100
G1 Z-3.950 F100
;<Delay> 6800

;<Slice> 68
M106 S255
;<Delay> 10000
M106 S0
;<Slice> Blank
G1 Z4.000 F100
G1 Z-3.950 F100
;<Delay> 6800

;<Slice> 69
M106 S255
;<Delay> 10000
M106 S0
;<Slice> Blank
G1 Z4.000 F100
G1 Z-3.950 F100
;<Delay> 6800

;<Slice> 70
M106 S255
;<Delay> 10000
M106 S0
;<Slice> Blank
G1 Z4.000 F100
G1 Z-3.950 F100
;<Delay> 6800

;<Slice> 71
M106 S255
;<Delay> 10000
M106 S0
;<Slice> Blank
G1 Z4.000 F100
G1 Z-3.950 F100
;<Delay> 6800

;<Slice> 72
M106 S255
;<Delay> 10000
M106 S0
;<Slice> Blank
G1 Z4.000 F100
G1 Z-3.950 F100
;<Delay> 6800

;<Slice> 73
M106 S255
;<Delay> 10000
M106 S0
;<Slice> Blank
G1 Z4.000 F100
G1 Z-3.950 F100
;<Delay> 6800

;<Slice> 74
M106 S255
;<Delay> 10000
M106 S0
;<Slice> Blank
G1 Z4.000 F100
G1 Z-3.950 F100
;<Delay> 6800

;<Slice> 75
M106 S255
;<Delay> 10000
M106 S0
;<Slice> Blank
G1 Z4.000 F100
G1 Z-3.950 F100
;<Delay> 6800

;<Slice> 76
M106 S255
;<Delay> 10000
M106 S0
;<Slice> Blank
G1 Z4.000 F100
G1 Z-3.950 F100
;<Delay> 6800

;<Slice> 77
M106 S255
;<Delay> 10000
M106 S0
;<Slice> Blank
G1 Z4.000 F100
G1 Z-3.950 F100
;<Delay> 6800

;<Slice> 78
M106 S255
;<Delay> 10000
M106 S0
;<Slice> Blank
G1 Z4.000 F100
G1 Z-3.950 F100
;<Delay> 6800

;<Slice> 79
M106 S255
;<Delay> 10000
M106 S0
;<Slice> Blank
G1 Z4.000 F100
G1 Z-3.950 F100
;<Delay> 6800

;<Slice> 80
M106 S255
;<Delay> 10000
M106 S0
;<Slice> Blank
G1 Z4.000 F100
G1 Z-3.950 F100
;<Delay> 6800

;<Slice> 81
M106 S255
;<Delay> 10000
M106 S0
;<Slice> Blank
G1 Z4.000 F100
G1 Z-3.950 F100
;<Delay> 6800

;<Slice> 82
M106 S255
;<Delay> 10000
M106 S0
;<Slice> Blank
G1 Z4.000 F100
G1 Z-3.950 F100
;<Delay> 6800

;<Slice> 83
M106 S255
;<Delay> 10000
M106 S0
;<Slice> Blank
G1 Z4.000 F100
G1 Z-3.950 F100
;<Delay> 6800

;<Slice> 84
M106 S255
;<Delay> 10000
M106 S0
;<Slice> Blank
G1 Z4.000 F100
G1 Z-3.950 F100
;<Delay> 6800

;<Slice> 85
M106 S255
;<Delay> 10000
M106 S0
;<Slice> Blank
G1 Z4.000 F100
G1 Z-3.950 F100
;<Delay> 6800

;<Slice> 86
M106 S255
;<Delay> 10000
M106 S0
;<Slice> Blank
G1 Z4.000 F100
G1 Z-3.950 F100
;<Delay> 6800

;<Slice> 87
M106 S255
;<Delay> 10000
M106 S0
;<Slice> Blank
G1 Z4.000 F100
G1 Z-3.950 F100
;<Delay> 6800

;<Slice> 88
M106 S255
;<Delay> 10000
M106 S0
;<Slice> Blank
G1 Z4.000 F100
G1 Z-3.950 F100
;<Delay> 6800

;<Slice> 89
M106 S255
;<Delay> 10000
M106 S0
;<Slice> Blank
G1 Z4.000 F100
G1 Z-3.950 F100
;<Delay> 6800

;<Slice> 90
M106 S255
;<Delay> 10000
M106 S0
;<Slice> Blank
G1 Z4.000 F100
G1 Z-3.950 F100
;<Delay> 6800

;<Slice> 91
M106 S255
;<Delay> 10000
M106 S0
;<Slice> Blank
G1 Z4.000 F100
G1 Z-3.950 F100
;<Delay> 6800

;<Slice> 92
M106 S255
;<Delay> 10000
M106 S0
;<Slice> Blank
G1 Z4.000 F100
G1 Z-3.950 F100
;<Delay> 6800

;<Slice> 93
M106 S255
;<Delay> 10000
M106 S0
;<Slice> Blank
G1 Z4.000 F100
G1 Z-3.950 F100
;<Delay> 6800

;<Slice> 94
M106 S255
;<Delay> 10000
M106 S0
;<Slice> Blank
G1 Z4.000 F100
G1 Z-3.950 F100
;<Delay> 6800

;<Slice> 95
M106 S255
;<Delay> 10000
M106 S0
;<Slice> Blank
G1 Z4.000 F100
G1 Z-3.950 F100
;<Delay> 6800

;<Slice> 96
M106 S255
;<Delay> 10000
M106 S0
;<Slice> Blank
G1 Z4.000 F100
G1 Z-3.950 F100
;<Delay> 6800

;<Slice> 97
M106 S255
;<Delay> 10000
M106 S0
;<Slice> Blank
G1 Z4.000 F100
G1 Z-3.950 F100
;<Delay> 6800

;<Slice> 98
M106 S255
;<Delay> 10000
M106 S0
;<Slice> Blank
G1 Z4.000 F100
G1 Z-3.950 F100
;<Delay> 6800

;<Slice> 99
M106 S255
;<Delay> 10000
M106 S0
;<Slice> Blank
G1 Z4.000 F100
G1 Z-3.950 F100
;<Delay> 6800

;<Slice> 100
M106 S255
;<Delay> 10000
M106 S0
;<Slice> Blank
G1 Z4.000 F100
G1 Z-3.950 F100
;<Delay> 6800

;<Slice> 101
M106 S255
;<Delay> 10000
M106 S0
;<Slice> Blank
G1 Z4.000 F100
G1 Z-3.950 F100
;<Delay> 6800

;<Slice> 102
M106 S255
;<Delay> 10000
M106 S0
;<Slice> Blank
G1 Z4.000 F100
G1 Z-3.950 F100
;<Delay> 6800

;<Slice> 103
M106 S255
;<Delay> 10000
M106 S0
;<Slice> Blank
G1 Z4.000 F100
G1 Z-3.950 F100
;<Delay> 6800

;<Slice> 104
M106 S255
;<Delay> 10000
M106 S0
;<Slice> Blank
G1 Z4.000 F100
G1 Z-3.950 F100
;<Delay> 6800

;<Slice> 105
M106 S255
;<Delay> 10000
M106 S0
;<Slice> Blank
G1 Z4.000 F100
G1 Z-3.950 F100
;<Delay> 6800

;<Slice> 106
M106 S255
;<Delay> 10000
M106 S0
;<Slice> Blank
G1 Z4.000 F100
G1 Z-3.950 F100
;<Delay> 6800

;<Slice> 107
M106 S255
;<Delay> 10000
M106 S0
;<Slice> Blank
G1 Z4.000 F100
G1 Z-3.950 F100
;<Delay> 6800

;<Slice> 108
M106 S255
;<Delay> 10000
M106 S0
;<Slice> Blank
G1 Z4.000 F100
G1 Z-3.950 F100
;<Delay> 6800

;<Slice> 109
M106 S255
;<Delay> 10000
M106 S0
;<Slice> Blank
G1 Z4.000 F100
G1 Z-3.950 F100
;<Delay> 6800

;<Slice> 110
M106 S255
;<Delay> 10000
M106 S0
;<Slice> Blank
G1 Z4.000 F100
G1 Z-3.950 F100
;<Delay> 6800

;<Slice> 111
M106 S255
;<Delay> 10000
M106 S0
;<Slice> Blank
G1 Z4.000 F100
G1 Z-3.950 F100
;<Delay> 6800

;<Slice> 112
M106 S255
;<Delay> 10000
M106 S0
;<Slice> Blank
G1 Z4.000 F100
G1 Z-3.950 F100
;<Delay> 6800

;<Slice> 113
M106 S255
;<Delay> 10000
M106 S0
;<Slice> Blank
G1 Z4.000 F100
G1 Z-3.950 F100
;<Delay> 6800

;<Slice> 114
M106 S255
;<Delay> 10000
M106 S0
;<Slice> Blank
G1 Z4.000 F100
G1 Z-3.950 F100
;<Delay> 6800

;<Slice> 115
M106 S255
;<Delay> 10000
M106 S0
;<Slice> Blank
G1 Z4.000 F100
G1 Z-3.950 F100
;<Delay> 6800

;<Slice> 116
M106 S255
;<Delay> 10000
M106 S0
;<Slice> Blank
G1 Z4.000 F100
G1 Z-3.950 F100
;<Delay> 6800

;<Slice> 117
M106 S255
;<Delay> 10000
M106 S0
;<Slice> Blank
G1 Z4.000 F100
G1 Z-3.950 F100
;<Delay> 6800

;<Slice> 118
M106 S255
;<Delay> 10000
M106 S0
;<Slice> Blank
G1 Z4.000 F100
G1 Z-3.950 F100
;<Delay> 6800

;<Slice> 119
M106 S255
;<Delay> 10000
M106 S0
;<Slice> Blank
G1 Z4.000 F100
G1 Z-3.950 F100
;<Delay> 6800

;<Slice> 120
M106 S255
;<Delay> 10000
M106 S0
;<Slice> Blank
G1 Z4.000 F100
G1 Z-3.950 F100
;<Delay> 6800

;<Slice> 121
M106 S255
;<Delay> 10000
M106 S0
;<Slice> Blank
G1 Z4.000 F100
G1 Z-3.950 F100
;<Delay> 6800

;<Slice> 122
M106 S255
;<Delay> 10000
M106 S0
;<Slice> Blank
G1 Z4.000 F100
G1 Z-3.950 F100
;<Delay> 6800

;<Slice> 123
M106 S255
;<Delay> 10000
M106 S0
;<Slice> Blank
G1 Z4.000 F100
G1 Z-3.950 F100
;<Delay> 6800

;<Slice> 124
M106 S255
;<Delay> 10000
M106 S0
;<Slice> Blank
G1 Z4.000 F100
G1 Z-3.950 F100
;<Delay> 6800

;<Slice> 125
M106 S255
;<Delay> 10000
M106 S0
;<Slice> Blank
G1 Z4.000 F100
G1 Z-3.950 F100
;<Delay> 6800

;<Slice> 126
M106 S255
;<Delay> 10000
M106 S0
;<Slice> Blank
G1 Z4.000 F100
G1 Z-3.950 F100
;<Delay> 6800

;<Slice> 127
M106 S255
;<Delay> 10000
M106 S0
;<Slice> Blank
G1 Z4.000 F100
G1 Z-3.950 F100
;<Delay> 6800

;<Slice> 128
M106 S255
;<Delay> 10000
M106 S0
;<Slice> Blank
G1 Z4.000 F100
G1 Z-3.950 F100
;<Delay> 6800

;<Slice> 129
M106 S255
;<Delay> 10000
M106 S0
;<Slice> Blank
G1 Z4.000 F100
G1 Z-3.950 F100
;<Delay> 6800

M18 ;Disable Motors
M106 SO
G1 Z80
;<Completed>
